flags/sa.svg

<svg width="512" height="512" viewBox="0 0 512 512" fill="none" xmlns="http://www.w3.org/2000/svg">
<rect width="512" height="512" fill="var(--flag-palette-dark-green, #496e2d)"/>
<path d="M144.696 306.088C144.696 324.529 159.646 339.479 178.087 339.479H278.261C278.261 354.847 290.719 367.305 306.087 367.305H339.478C354.846 367.305 367.304 354.847 367.304 339.479V306.088H144.696Z" fill="var(--flag-palette-white, #eeeeee)"/>
<path d="M370.087 144.697V222.61C370.087 234.885 360.101 244.871 347.826 244.871V278.262C378.513 278.262 403.478 253.296 403.478 222.61V144.697H370.087Z" fill="var(--flag-palette-white, #eeeeee)"/>
<path d="M130.783 222.61C130.783 234.885 120.797 244.871 108.522 244.871V278.262C139.209 278.262 164.174 253.296 164.174 222.61V144.697H130.783V222.61Z" fill="var(--flag-palette-white, #eeeeee)"/>
<path d="M320 144.697H353.391V222.61H320V144.697Z" fill="var(--flag-palette-white, #eeeeee)"/>
<path d="M269.913 189.217C269.913 192.286 267.416 194.782 264.348 194.782C261.28 194.782 258.783 192.285 258.783 189.217V144.695H225.392V189.217C225.392 192.286 222.895 194.782 219.827 194.782C216.759 194.782 214.262 192.285 214.262 189.217V144.695H180.87V189.217C180.87 210.698 198.346 228.174 219.827 228.174C228.1 228.174 235.772 225.574 242.088 221.158C248.403 225.573 256.076 228.174 264.349 228.174C266.015 228.174 267.653 228.057 269.264 227.852C266.898 237.601 258.118 244.869 247.653 244.869V278.26C278.34 278.26 303.305 253.294 303.305 222.608V189.217V144.695H269.914V189.217H269.913Z" fill="var(--flag-palette-white, #eeeeee)"/>
<path d="M180.87 244.871H230.957V278.262H180.87V244.871Z" fill="var(--flag-palette-white, #eeeeee)"/>
</svg>

<svg xmlns="http://www.w3.org/2000/svg" width="512" height="512" fill="none"><path fill="var(--flag-palette-dark-green, #496e2d)" d="M0 0h512v512H0z"/><path fill="var(--flag-palette-white, #eeeeee)" d="M144.7 306c0 18.5 15 33.5 33.4 33.5h100.2a28 28 0 0 0 27.8 27.8h33.4a28 28 0 0 0 27.8-27.8V306zM370 144.7v78c0 12.2-9.9 22.2-22.2 22.2v33.4c30.7 0 55.7-25 55.7-55.7v-77.9zm-239.2 77.9c0 12.3-10 22.3-22.3 22.3v33.4c30.7 0 55.7-25 55.7-55.7v-77.9h-33.4z"/><path fill="var(--flag-palette-white, #eeeeee)" d="M320 144.7h33.4v78H320zm-50 44.5a5.6 5.6 0 0 1-11.2 0v-44.5h-33.4v44.5a5.6 5.6 0 0 1-11.1 0v-44.5h-33.4v44.5a39 39 0 0 0 61.2 32 39 39 0 0 0 27.2 6.7 22 22 0 0 1-21.6 17v33.4c30.6 0 55.6-25 55.6-55.7v-77.9H270z"/><path fill="var(--flag-palette-white, #eeeeee)" d="M180.9 244.9h50v33.4h-50z"/></svg>
